vendor/shopware/storefront/Resources/app/storefront/dist/assets/icon/default/circle-upload.svg

<svg xmlns="http://www.w3.org/2000/svg" width="24" height="24" viewBox="0 0 24 24">
  <path fill="#758CA3" fill-rule="evenodd" d="M14,3.41421356 L14,17 C14,17.5522847 13.5522847,18 13,18 C12.4477153,18 12,17.5522847 12,17 L12,3.41421356 L10.7071068,4.70710678 C10.3165825,5.09763107 9.68341751,5.09763107 9.29289322,4.70710678 C8.90236893,4.31658249 8.90236893,3.68341751 9.29289322,3.29289322 L12.2928932,0.292893219 C12.6834175,-0.0976310729 13.3165825,-0.0976310729 13.7071068,0.292893219 L16.7071068,3.29289322 C17.0976311,3.68341751 17.0976311,4.31658249 16.7071068,4.70710678 C16.3165825,5.09763107 15.6834175,5.09763107 15.2928932,4.70710678 L14,3.41421356 Z M8.49927404,7.13439413 C8.97733496,6.85785082 9.58906256,7.02121312 9.86560587,7.49927404 C10.1421492,7.97733496 9.97878688,8.58906256 9.50072596,8.86560587 C7.35109585,10.1090997 6,12.4011852 6,14.9297424 C6,18.7957357 9.13400675,21.9297424 13,21.9297424 C16.8659932,21.9297424 20,18.7957357 20,14.9297424 C20,12.4011852 18.6489042,10.1090997 16.499274,8.86560587 C16.0212131,8.58906256 15.8578508,7.97733496 16.1343941,7.49927404 C16.4109374,7.02121312 17.022665,6.85785082 17.500726,7.13439413 C20.2622074,8.73182487 22,11.6799275 22,14.9297424 C22,19.9003052 17.9705627,23.9297424 13,23.9297424 C8.02943725,23.9297424 4,19.9003052 4,14.9297424 C4,11.6799275 5.73779265,8.73182487 8.49927404,7.13439413 Z"/>
</svg>

<svg xmlns="http://www.w3.org/2000/svg" width="24" height="24" viewBox="0 0 24 24"><path fill="#758CA3" fill-rule="evenodd" d="M14 3.4142V17c0 .5523-.4477 1-1 1s-1-.4477-1-1V3.4142l-1.2929 1.293c-.3905.3904-1.0237.3904-1.4142 0-.3905-.3906-.3905-1.0238 0-1.4143l3-3c.3905-.3905 1.0237-.3905 1.4142 0l3 3c.3905.3905.3905 1.0237 0 1.4142-.3905.3905-1.0237.3905-1.4142 0L14 3.4142zM8.4993 7.1344c.478-.2765 1.0898-.1132 1.3663.3649.2765.478.1132 1.0898-.3649 1.3663C7.3511 10.1091 6 12.4012 6 14.9297c0 3.866 3.134 7 7 7s7-3.134 7-7c0-2.5285-1.3511-4.8206-3.5007-6.064-.478-.2766-.6414-.8884-.365-1.3664.2766-.478.8884-.6414 1.3664-.365C20.2622 8.7319 22 11.68 22 14.9298c0 4.9706-4.0294 9-9 9s-9-4.0294-9-9c0-3.2498 1.7378-6.198 4.4993-7.7954z"/></svg>
